X: 4
T: Reel des ti-minous
%T: Reel of the small kittens
R: reel
M: C|
L: 1/8
K: G
%%text Cut final half-note short and play pickups on transition.
"(D7)"def |\
"G"g2B2 d2 G2 | B2D2 G3B | "D"A2FA DFAF |1,3 GABc d :|2 GBAF "G"G :|[4 GBAF "G"G2 |]
|: A2 |\
"G"BdBA GFGB | ed^ce d2B2 | "Am7"ABAG FDFA | "D"d^cde d2cd |
"G"BdBA "G7/B"G2gf | "C"edef "Am"e2d2 | "D"d2fe dcBA |1 GgdB "D"G2 :|[2 GgdB "D"G2 |]
% text 4/28/12

